www/assets/icons/local_pharmacy.svg

<svg xmlns="http://www.w3.org/2000/svg" width="24" height="24" viewBox="0 0 24 24" fill='currentColor'><path d="M21 6h-2.64l1.14-3.14L17.15 2l-1.46 4H3v2l2 6-2 6v2h18v-2l-2-6 2-6zm-5 9h-3v3h-2v-3H8v-2h3v-3h2v3h3z"/></svg>

<svg width="24" height="24" viewBox="0 0 24 24" xmlns="http://www.w3.org/2000/svg" fill='currentColor'><path d="M21 6H18.36L19.5 2.86L17.15 2L15.69 6H3V8L5 14L3 20V22H21V20L19 14L21 8V6ZM16 15H13V18H11V15H8V13H11V10H13V13H16V15Z"/></svg>
